packages/tokens/icons/update/size32Px.svg

<svg viewBox="0 0 32 32" fill="none" xmlns="http://www.w3.org/2000/svg" width="1em" height="1em"><path d="M5.08959 13.4472L5.57663 13.5603L5.08959 13.4472ZM18.0014 5.38564L18.3407 5.75288C18.4388 5.66228 18.4965 5.53623 18.5011 5.40281C18.5057 5.26939 18.4567 5.13967 18.3651 5.04256L18.0014 5.38564ZM15.7147 2.23266C15.5252 2.03178 15.2088 2.02254 15.0079 2.21202C14.807 2.4015 14.7978 2.71795 14.9872 2.91883L15.7147 2.23266ZM14.8729 7.59559C14.6701 7.78299 14.6576 8.09933 14.845 8.30214C15.0324 8.50496 15.3487 8.51746 15.5515 8.33006L14.8729 7.59559ZM8.28953 7.93176L8.62884 8.299L8.28953 7.93176ZM7.43704 23.9117C7.62444 24.1145 7.94078 24.127 8.1436 23.9396C8.34641 23.7522 8.35891 23.4359 8.17151 23.2331L7.43704 23.9117ZM18.3651 5.04256L15.7147 2.23266L14.9872 2.91883L17.6377 5.72872L18.3651 5.04256ZM17.6621 5.01841L14.8729 7.59559L15.5515 8.33006L18.3407 5.75288L17.6621 5.01841ZM5.57663 13.5603C6.04908 11.5259 7.11537 9.69738 8.62884 8.299L7.95021 7.56452C6.28927 9.09916 5.12024 11.1048 4.60255 13.3341L5.57663 13.5603ZM8.62884 8.299C10.9978 6.11019 14.7074 5.11463 17.8855 5.87202L18.1173 4.89926C14.6119 4.06386 10.5616 5.15168 7.95021 7.56452L8.62884 8.299ZM8.17151 23.2331C5.78059 20.6455 4.78868 16.9533 5.57663 13.5603L4.60255 13.3341C3.73853 17.0547 4.82474 21.0846 7.43704 23.9117L8.17151 23.2331Z" fill="currentColor"/><path d="M26.9099 18.5533L26.4229 18.4402L26.9099 18.5533ZM13.9981 26.6148L13.6588 26.2476C13.5607 26.3382 13.503 26.4643 13.4984 26.5977C13.4938 26.7311 13.5428 26.8608 13.6344 26.9579L13.9981 26.6148ZM16.2848 29.7678C16.4743 29.9687 16.7907 29.9779 16.9916 29.7885C17.1925 29.599 17.2017 29.2825 17.0123 29.0817L16.2848 29.7678ZM17.1266 24.4049C17.3294 24.2175 17.3419 23.9012 17.1545 23.6983C16.9671 23.4955 16.6508 23.483 16.448 23.6704L17.1266 24.4049ZM23.71 24.0687L23.3707 23.7015L23.71 24.0687ZM24.5625 8.08876C24.3751 7.88594 24.0587 7.87344 23.8559 8.06085C23.6531 8.24825 23.6406 8.56459 23.828 8.7674L24.5625 8.08876ZM13.6344 26.9579L16.2848 29.7678L17.0123 29.0817L14.3618 26.2718L13.6344 26.9579ZM14.3374 26.9821L17.1266 24.4049L16.448 23.6704L13.6588 26.2476L14.3374 26.9821ZM26.4229 18.4402C25.9504 20.4746 24.8841 22.3031 23.3707 23.7015L24.0493 24.436C25.7102 22.9013 26.8793 20.8956 27.397 18.6664L26.4229 18.4402ZM23.3707 23.7015C21.0017 25.8903 17.2921 26.8859 14.114 26.1285L13.8822 27.1012C17.3876 27.9366 21.4379 26.8488 24.0493 24.436L23.3707 23.7015ZM23.828 8.7674C26.2189 11.355 27.2108 15.0472 26.4229 18.4402L27.397 18.6664C28.261 14.9458 27.1748 10.9159 24.5625 8.08876L23.828 8.7674Z" fill="currentColor"/><path d="M14.5 11.5V18.5H18.5" stroke="currentColor" stroke-miterlimit="10" stroke-linecap="round" stroke-linejoin="round"/></svg>

<svg xmlns="http://www.w3.org/2000/svg" fill="none" viewBox="0 0 32 32" width="1em" height="1em"><path fill="currentColor" d="m5.09 13.447.487.113-.487-.113ZM18 5.386l.34.367a.5.5 0 0 0 .024-.71L18 5.386Zm-2.286-3.153a.5.5 0 0 0-.728.686l.728-.686Zm-.842 5.363a.5.5 0 0 0 .679.734l-.68-.734Zm-6.583.336.339.367-.34-.367Zm-.853 15.98a.5.5 0 0 0 .735-.679l-.735.679Zm10.928-18.87-2.65-2.81-.728.687 2.65 2.81.728-.686Zm-.703-.024-2.79 2.578.68.734 2.789-2.577-.679-.735ZM5.577 13.56A10.34 10.34 0 0 1 8.629 8.3l-.679-.734a11.34 11.34 0 0 0-3.347 5.77l.974.225ZM8.629 8.3c2.369-2.189 6.078-3.184 9.257-2.427l.231-.973c-3.505-.835-7.555.253-10.167 2.666l.679.734Zm-.457 14.934c-2.391-2.588-3.383-6.28-2.595-9.673l-.974-.226c-.864 3.72.222 7.75 2.834 10.578l.735-.679Zm18.738-4.681-.487-.113.487.113Zm-12.912 8.062-.34-.367a.5.5 0 0 0-.024.71l.364-.343Zm2.287 3.153a.5.5 0 0 0 .727-.686l-.727.686Zm.842-5.363a.5.5 0 0 0-.679-.735l.679.735Zm6.583-.336-.34-.367.34.367Zm.852-15.98a.5.5 0 0 0-.734.678l.735-.678ZM13.634 26.958l2.65 2.81.728-.686-2.65-2.81-.728.686Zm.703.024 2.79-2.577-.679-.735-2.79 2.578.68.734Zm12.086-8.542a10.341 10.341 0 0 1-3.052 5.261l.678.735a11.341 11.341 0 0 0 3.348-5.77l-.974-.226Zm-3.052 5.261c-2.37 2.19-6.079 3.185-9.257 2.427l-.232.973c3.506.836 7.556-.252 10.167-2.665l-.678-.735Zm.457-14.934c2.39 2.588 3.383 6.28 2.595 9.673l.974.226c.864-3.72-.222-7.75-2.834-10.577l-.735.678Z"/><path stroke="currentColor" stroke-linecap="round" stroke-linejoin="round" stroke-miterlimit="10" d="M14.5 11.5v7h4"/></svg>
